X: 86
T: Neil Doherty
T: Reel, A
C: Ronald Cooper
L: 1/16
M: C|
K: A
|: c2e2A2c2 e2A2c2e2| d2f2A2d2 f2A2d2f2| c2e2A2c2 e2A2c2e2| B2d2=G2B2 d2G2B2d2| 
c2e2A2c2 e2A2c2e2| d2f2A2d2 f2A2d2f2| e2a2g2f2 e2d2c2B2| A2a2e2c2 A4A2e2:| 
|: a2e2c2e2 a2c2e2a2| a2f2d2f2 a2d2f2a2| a2e2c2e2 a2c2e2a2| =g2d2B2d2 g2B2d2g2| 
a2e2c2e2 a2c2e2a2| a2f2d2f2 a2d2f2a2| e2a2g2f2 e2d2c2B2| A2a2e2c2 A4A2e2:| 
D: Buddy MacMaster, Glencoe Hall, BM-91
